X: 130612
T: McGreevy's Favorite
N: for Johnny McGreevy of Chicago (RIP)
S: "Treoir" 32/4
Z: B.Black
M: 4/4
L: 1/8
R: reel
K: Dmix
DEFA d2 cA | GEED EFGB | Addc d=cAB | cAGE EDCE |
DEFA d2 cA | GEED EFGB | Addc d=cAB | cAGE ED D2 :|
aged c2 cd | edcd efge | aged cded | cAGE ED D2 |
ed (3efg aged | d=cAB cAGB | AEED EGAB | cAGE ED D2 :|
